findly-builder/apps/searchassist/src/assets/icons/resultTemplate/banking-list.svg

<svg width="127" height="85" viewBox="0 0 127 85" fill="none" xmlns="http://www.w3.org/2000/svg">
<g filter="url(#filter0_d_2939_67446)">
<rect x="6" y="6.37109" width="115" height="71.6744" rx="4" fill="white"/>
</g>
<rect x="13" y="14.3711" width="33" height="36" fill="#EFF0F1"/>
<path d="M61.1751 26.1328L62.6979 25.9673L63.3199 24.491C63.3873 24.3311 63.6139 24.3311 63.6813 24.491L64.3033 25.9673L65.8249 26.1328C65.9911 26.1509 66.0599 26.3554 65.9383 26.4702L64.7934 27.5509L65.1159 29.1354C65.15 29.3031 64.9679 29.4309 64.8218 29.3419L63.5006 28.5373L62.1782 29.342C62.0319 29.4309 61.8499 29.303 61.8841 29.1353L62.2078 27.5509L61.0618 26.4703C60.9401 26.3555 61.0088 26.1509 61.1751 26.1328Z" fill="#EFF0F1"/>
<path d="M67.1751 26.1328L68.6979 25.9673L69.3199 24.491C69.3873 24.3311 69.6139 24.3311 69.6813 24.491L70.3033 25.9673L71.8249 26.1328C71.9911 26.1509 72.0599 26.3554 71.9383 26.4702L70.7934 27.5509L71.1159 29.1354C71.15 29.3031 70.9679 29.4309 70.8218 29.3419L69.5006 28.5373L68.1782 29.342C68.0319 29.4309 67.8499 29.303 67.8841 29.1353L68.2078 27.5509L67.0618 26.4703C66.9401 26.3555 67.0088 26.1509 67.1751 26.1328Z" fill="#EFF0F1"/>
<path d="M73.1751 26.1328L74.6979 25.9673L75.3199 24.491C75.3873 24.3311 75.6139 24.3311 75.6813 24.491L76.3033 25.9673L77.8249 26.1328C77.9911 26.1509 78.0599 26.3554 77.9383 26.4702L76.7934 27.5509L77.1159 29.1354C77.15 29.3031 76.9679 29.4309 76.8218 29.3419L75.5006 28.5373L74.1782 29.342C74.0319 29.4309 73.8499 29.303 73.8841 29.1353L74.2078 27.5509L73.0618 26.4703C72.9401 26.3555 73.0088 26.1509 73.1751 26.1328Z" fill="#EFF0F1"/>
<path d="M79.1751 26.1328L80.6979 25.9673L81.3199 24.491C81.3873 24.3311 81.6139 24.3311 81.6813 24.491L82.3033 25.9673L83.8249 26.1328C83.9911 26.1509 84.0599 26.3554 83.9383 26.4702L82.7934 27.5509L83.1159 29.1354C83.15 29.3031 82.9679 29.4309 82.8218 29.3419L81.5006 28.5373L80.1782 29.342C80.0319 29.4309 79.8499 29.303 79.8841 29.1353L80.2078 27.5509L79.0618 26.4703C78.9401 26.3555 79.0088 26.1509 79.1751 26.1328Z" fill="#EFF0F1"/>
<path d="M85.1751 26.1328L86.6979 25.9673L87.3199 24.491C87.3873 24.3311 87.6139 24.3311 87.6813 24.491L88.3033 25.9673L89.8249 26.1328C89.9911 26.1509 90.0599 26.3554 89.9383 26.4702L88.7934 27.5509L89.1159 29.1354C89.15 29.3031 88.9679 29.4309 88.8218 29.3419L87.5006 28.5373L86.1782 29.342C86.0319 29.4309 85.8499 29.303 85.8841 29.1353L86.2078 27.5509L85.0618 26.4703C84.9401 26.3555 85.0088 26.1509 85.1751 26.1328Z" fill="#EFF0F1"/>
<rect x="14" y="61.3711" width="25" height="4" fill="#EFF0F1"/>
<rect x="42" y="61.3711" width="16" height="4" fill="#EFF0F1"/>
<rect x="61" y="61.3711" width="23" height="4" fill="#EFF0F1"/>
<rect x="50" y="32.3711" width="64" height="4" fill="#EFF0F1"/>
<rect x="14" y="56.3711" width="100" height="1" fill="#EFF0F1"/>
<rect x="50" y="24.3711" width="8" height="5" fill="#EFF0F1"/>
<rect x="50" y="14.3711" width="64" height="8" fill="#EFF0F1"/>
<rect x="50" y="39.3711" width="64" height="4" fill="#EFF0F1"/>
<rect x="50" y="46.3711" width="42" height="4" fill="#EFF0F1"/>
<rect x="14" y="68.3711" width="20" height="4" fill="#EFF0F1"/>
<rect x="37" y="68.3711" width="29" height="4" fill="#EFF0F1"/>
<rect x="69" y="68.3711" width="29" height="4" fill="#EFF0F1"/>
<path fill-rule="evenodd" clip-rule="evenodd" d="M22.2812 24.1211C21.1995 24.1211 20.3125 25.0503 20.3125 26.1836V38.5586C20.3125 39.6919 21.1995 40.6211 22.2812 40.6211H36.7188C37.8005 40.6211 38.6875 39.6919 38.6875 38.5586V26.1836C38.6875 25.0503 37.8005 24.1211 36.7188 24.1211H22.2812ZM22.2812 25.4961H36.7188C37.0879 25.4961 37.375 25.7969 37.375 26.1836V36.1738L33.1591 31.511C32.9563 31.2867 32.6024 31.2924 32.4068 31.523L30.2126 34.1113L26.6428 30.1678C26.4399 29.9437 26.0862 29.9494 25.8907 30.18L21.625 35.2124V26.1836C21.625 25.7969 21.9121 25.4961 22.2812 25.4961ZM33.4375 26.8711C32.7146 26.8711 32.125 27.4888 32.125 28.2461C32.125 29.0034 32.7146 29.6211 33.4375 29.6211C34.1604 29.6211 34.75 29.0034 34.75 28.2461C34.75 27.4888 34.1604 26.8711 33.4375 26.8711ZM26.2905 31.7749L33.053 39.2461H22.2812C21.9121 39.2461 21.625 38.9453 21.625 38.5586V37.2856L26.2905 31.7749ZM32.8018 33.123L37.375 38.1719V38.5586C37.375 38.9453 37.0879 39.2461 36.7188 39.2461H34.8577L31.1201 35.1104L32.8018 33.123Z" fill="#BDC1C6"/>
<defs>
<filter id="filter0_d_2939_67446" x="0" y="0.371094" width="127" height="83.6738" filterUnits="userSpaceOnUse" color-interpolation-filters="sRGB">
<feFlood flood-opacity="0" result="BackgroundImageFix"/>
<feColorMatrix in="SourceAlpha" type="matrix" values="0 0 0 0 0 0 0 0 0 0 0 0 0 0 0 0 0 0 127 0" result="hardAlpha"/>
<feOffset/>
<feGaussianBlur stdDeviation="3"/>
<feColorMatrix type="matrix" values="0 0 0 0 0 0 0 0 0 0 0 0 0 0 0 0 0 0 0.1 0"/>
<feBlend mode="normal" in2="BackgroundImageFix" result="effect1_dropShadow_2939_67446"/>
<feBlend mode="normal" in="SourceGraphic" in2="effect1_dropShadow_2939_67446" result="shape"/>
</filter>
</defs>
</svg>

<svg width="127" height="85" fill="none" xmlns="http://www.w3.org/2000/svg"><g filter="url(#a)"><rect x="6" y="6.371" width="115" height="71.674" rx="4" fill="#fff"/></g><path fill="#EFF0F1" d="M13 14.371h33v36H13zm48.175 11.762 1.523-.166.622-1.476a.196.196 0 0 1 .361 0l.622 1.476 1.522.166a.196.196 0 0 1 .113.337l-1.145 1.08.323 1.585a.196.196 0 0 1-.294.207l-1.321-.805-1.323.805a.196.196 0 0 1-.294-.207l.324-1.584-1.146-1.08a.196.196 0 0 1 .113-.338Zm6 0 1.523-.166.622-1.476a.196.196 0 0 1 .361 0l.622 1.476 1.522.166a.196.196 0 0 1 .113.337l-1.145 1.08.323 1.585a.196.196 0 0 1-.294.207l-1.321-.805-1.323.805a.196.196 0 0 1-.294-.207l.324-1.584-1.146-1.08a.196.196 0 0 1 .113-.338Zm6 0 1.523-.166.622-1.476a.196.196 0 0 1 .361 0l.622 1.476 1.522.166a.196.196 0 0 1 .113.337l-1.145 1.08.323 1.585a.196.196 0 0 1-.294.207l-1.321-.805-1.323.805a.196.196 0 0 1-.294-.207l.324-1.584-1.146-1.08a.196.196 0 0 1 .113-.338Zm6 0 1.523-.166.622-1.476a.196.196 0 0 1 .361 0l.622 1.476 1.522.166a.196.196 0 0 1 .113.337l-1.145 1.08.323 1.585a.196.196 0 0 1-.294.207l-1.321-.805-1.323.805a.196.196 0 0 1-.294-.207l.324-1.584-1.146-1.08a.196.196 0 0 1 .113-.338Zm6 0 1.523-.166.622-1.476a.196.196 0 0 1 .361 0l.622 1.476 1.522.166a.196.196 0 0 1 .113.337l-1.145 1.08.323 1.585a.196.196 0 0 1-.294.207l-1.321-.805-1.323.805a.196.196 0 0 1-.294-.207l.324-1.584-1.146-1.08a.196.196 0 0 1 .113-.338ZM14 61.371h25v4H14zm28 0h16v4H42zm19 0h23v4H61zm-11-29h64v4H50zm-36 24h100v1H14zm36-32h8v5h-8zm0-10h64v8H50zm0 25h64v4H50zm0 7h42v4H50zm-36 22h20v4H14zm23 0h29v4H37zm32 0h29v4H69z"/><path fill-rule="evenodd" clip-rule="evenodd" d="M22.281 24.121c-1.081 0-1.968.93-1.968 2.063v12.375c0 1.133.887 2.062 1.968 2.062H36.72c1.081 0 1.968-.93 1.968-2.062V26.184c0-1.134-.886-2.063-1.968-2.063H22.28Zm0 1.375H36.72c.369 0 .656.3.656.688v9.99l-4.216-4.663a.5.5 0 0 0-.752.012l-2.194 2.588-3.57-3.943a.5.5 0 0 0-.752.012l-4.266 5.032v-9.028c0-.387.287-.688.656-.688Zm11.157 1.375c-.723 0-1.313.618-1.313 1.375s.59 1.375 1.313 1.375c.722 0 1.312-.618 1.312-1.375s-.59-1.375-1.313-1.375Zm-7.148 4.904 6.763 7.471H22.281c-.369 0-.656-.3-.656-.687v-1.273l4.666-5.511Zm6.512 1.348 4.573 5.049v.387c0 .386-.287.687-.656.687h-1.861L31.12 35.11l1.682-1.987Z" fill="#BDC1C6"/><defs><filter id="a" x="0" y=".371" width="127" height="83.674" filterUnits="userSpaceOnUse" color-interpolation-filters="sRGB"><feFlood flood-opacity="0" result="BackgroundImageFix"/><feColorMatrix in="SourceAlpha" values="0 0 0 0 0 0 0 0 0 0 0 0 0 0 0 0 0 0 127 0" result="hardAlpha"/><feOffset/><feGaussianBlur stdDeviation="3"/><feColorMatrix values="0 0 0 0 0 0 0 0 0 0 0 0 0 0 0 0 0 0 0.1 0"/><feBlend in2="BackgroundImageFix" result="effect1_dropShadow_2939_67446"/><feBlend in="SourceGraphic" in2="effect1_dropShadow_2939_67446" result="shape"/></filter></defs></svg>
